public/flags/CAS.svg

<svg fill="none" height="53" viewBox="0 0 61 53" width="61" xmlns="http://www.w3.org/2000/svg" xmlns:xlink="http://www.w3.org/1999/xlink"><mask id="a" height="43" maskUnits="userSpaceOnUse" width="59" x="1" y="3"><rect fill="#fff" height="42.5" rx="4.24286" width="59" x="1" y="3"/></mask><rect fill="#fff" height="42.5" rx="4.24286" width="59" x="1" y="3"/><g mask="url(#a)"><path d="m1 3h59v42.5h-59z" fill="#19bfbf"/><path clip-rule="evenodd" d="m12.5502 20.7874c-.1726.3482-.0319.7705.3152.9455l4.3647 2.2009c.3471.1749.4878.5972.3152.9455l-.7765 1.5662c-.1743.3516-.6016.494-.952.3173l-2.0236-1.0204c-.0988-.0498-.2078-.0757-.3184-.0757h-3.3389c-.39059 0-.70719.3166-.70719.7071v1.6179c0 .3037.19394.5735.48182.6703l2.65607.8928c.4963.1669.6455.7964.2768 1.1682l-.4002.4036c-.1313.1324-.205.3114-.205.4979v1.0117c0 .0754.0121.1503.0358.2219l1.2772 3.8641c.0588.1779.1857.3252.353.4095l2.0896 1.0536c.2735.138.6048.0841.8205-.1335l2.4477-2.4685.7195-.7255c.3383-.3412.2452-.9131-.1838-1.1294l-1.5517-.7824c-.2384-.1202-.3887-.3644-.3887-.6314v-.0737c0-.4606.4333-.7983.88-.6857l4.2048 1.0601c.3141.0792.5342.3617.5342.6857v2.0697c0 .1387.0408.2743.1173.39l2.4826 3.7554c.1309.1981.3525.3172.5899.3172h.5443c.2899 0 .5504-.1769.6573-.4464l2.0469-5.1608c.2258-.5691 1.019-.6019 1.2909-.0534l.6486 1.3081c.0336.0679.078.13.1314.1838l2.6479 2.6704c.0537.0541.1157.0992.1838.1335l1.6812.8477c.4703.2372 1.0255-.1047 1.0255-.6314v-1.3936c0-.1866-.0736-.3655-.205-.498l-.706-.712c-.2733-.2756-.2733-.7201 0-.9958l.7036-.7095c.1328-.1339.3135-.2092.5021-.2092h2.3467c.1106 0 .2196-.026.3184-.0758l2.2705-1.1449c.2384-.1202.3888-.3644.3888-.6314v-2.1068c0-.1865-.0737-.3655-.205-.4979l-.706-.712c-.2734-.2757-.2734-.7202 0-.9958l1.6194-1.6332c.3414-.3443.9203-.2506 1.1357.1838l.792 1.5975c.1062.2143.3247.3498.5638.3498.4669 0 .7712-.4905.5638-.9088l-.6422-1.2953c-.1726-.3482-.0319-.7705.3152-.9455l1.5552-.7842c.347-.175.4878-.5973.3151-.9455l-.9625-1.9413c-.0834-.1682-.2302-.2964-.4082-.3562l-2.8599-.9614c-.4963-.1668-.6455-.7964-.2768-1.1682l1.8024-1.8177c.1328-.1339.3136-.2092.5022-.2092h3.4809c.2687 0 .5142-.1523.6336-.3931l.7517-1.5161c.2206-.4451-.0743-.973-.569-1.0183l-12.9314-1.1856c-.5954-.0546-.8586-.7775-.4376-1.2021l.1435-.1448c.1314-.1324.205-.3114.205-.4979v-1.835c0-.39054-.3166-.70714-.7071-.70714h-6.022c-.1886 0-.3694.07532-.5021.20923l-3.8683 3.90111c-.0907.0914-.2045.1563-.3293.1877l-5.4283 1.3686-5.3633 1.3522c-.1649.0416-.3394.0223-.4912-.0543l-1.0478-.5283c-.5628-.2838-1.1876.2549-.9898.8533l.7771 2.3513c.0584.1767.0448.3693-.0378.5361zm19.3548 17.6293c0 .7824-.629 1.4166-1.4048 1.4166s-1.4048-.6342-1.4048-1.4166.629-1.4167 1.4048-1.4167 1.4048.6343 1.4048 1.4167zm-9.8335-12.75c.7758 0 1.4047-.6343 1.4047-1.4167s-.6289-1.4167-1.4047-1.4167c-.7759 0-1.4048.6343-1.4048 1.4167s.6289 1.4167 1.4048 1.4167zm26.6905 4.25v1.4166l-1.6146 1.6283c-.4426.4463-.1264 1.2051.5021 1.2051h.6738c.2687 0 .5142-.1523.6335-.3931l1.2099-2.4403zm0 0 .7829-.3948c.5078-.2561.3256-1.0219-.2431-1.0219-.2981 0-.5398.2417-.5398.5398z" fill="#fff" fill-rule="evenodd"/></g></svg>

<svg width="61" height="53" viewBox="0 0 61 53" fill="none" xmlns="http://www.w3.org/2000/svg">
<rect x="1" y="3" width="59" height="42.5" rx="4.24286" fill="white"/>
<mask id="mask0" mask-type="alpha" maskUnits="userSpaceOnUse" x="1" y="3" width="59" height="43">
<rect x="1" y="3" width="59" height="42.5" rx="4.24286" fill="white"/>
</mask>
<g mask="url(#mask0)">
<rect x="1" y="3" width="59" height="42.5" fill="#19BFBF"/>
<path fill-rule="evenodd" clip-rule="evenodd" d="M12.5502 20.7874C12.3776 21.1356 12.5183 21.5579 12.8654 21.7329L17.2301 23.9338C17.5772 24.1087 17.7179 24.531 17.5453 24.8793L16.7688 26.4455C16.5945 26.7971 16.1672 26.9395 15.8168 26.7628L13.7932 25.7424C13.6944 25.6926 13.5854 25.6667 13.4748 25.6667H10.1359C9.74531 25.6667 9.42871 25.9833 9.42871 26.3738V27.9917C9.42871 28.2954 9.62265 28.5652 9.91053 28.662L12.5666 29.5548C13.0629 29.7217 13.2121 30.3512 12.8434 30.723L12.4432 31.1266C12.3119 31.259 12.2382 31.438 12.2382 31.6245V32.6362C12.2382 32.7116 12.2503 32.7865 12.274 32.8581L13.5512 36.7222C13.61 36.9001 13.7369 37.0474 13.9042 37.1317L15.9938 38.1853C16.2673 38.3233 16.5986 38.2694 16.8143 38.0518L19.262 35.5833L19.9815 34.8578C20.3198 34.5166 20.2267 33.9447 19.7977 33.7284L18.246 32.946C18.0076 32.8258 17.8573 32.5816 17.8573 32.3146V32.2409C17.8573 31.7803 18.2906 31.4426 18.7373 31.5552L22.9421 32.6153C23.2562 32.6945 23.4763 32.977 23.4763 33.301V35.3707C23.4763 35.5094 23.5171 35.645 23.5936 35.7607L26.0762 39.5161C26.2071 39.7142 26.4287 39.8333 26.6661 39.8333H27.2104C27.5003 39.8333 27.7608 39.6564 27.8677 39.3869L29.9146 34.2261C30.1404 33.657 30.9336 33.6242 31.2055 34.1727L31.8541 35.4808C31.8877 35.5487 31.9321 35.6108 31.9855 35.6646L34.6334 38.335C34.6871 38.3891 34.7491 38.4342 34.8172 38.4685L36.4984 39.3162C36.9687 39.5534 37.5239 39.2115 37.5239 38.6848V37.2912C37.5239 37.1046 37.4503 36.9257 37.3189 36.7932L36.6129 36.0812C36.3396 35.8056 36.3396 35.3611 36.6129 35.0854L37.3165 34.3759C37.4493 34.242 37.63 34.1667 37.8186 34.1667H40.1653C40.2759 34.1667 40.3849 34.1407 40.4837 34.0909L42.7542 32.946C42.9926 32.8258 43.143 32.5816 43.143 32.3146V30.2078C43.143 30.0213 43.0693 29.8423 42.938 29.7099L42.232 28.9979C41.9586 28.7222 41.9586 28.2777 42.232 28.0021L43.8514 26.3689C44.1928 26.0246 44.7717 26.1183 44.9871 26.5527L45.7791 28.1502C45.8853 28.3645 46.1038 28.5 46.3429 28.5C46.8098 28.5 47.1141 28.0095 46.9067 27.5912L46.2645 26.2959C46.0919 25.9477 46.2326 25.5254 46.5797 25.3504L48.1349 24.5662C48.4819 24.3912 48.6227 23.9689 48.45 23.6207L47.4875 21.6794C47.4041 21.5112 47.2573 21.383 47.0793 21.3232L44.2194 20.3618C43.7231 20.195 43.5739 19.5654 43.9426 19.1936L45.745 17.3759C45.8778 17.242 46.0586 17.1667 46.2472 17.1667H49.7281C49.9968 17.1667 50.2423 17.0144 50.3617 16.7736L51.1134 15.2575C51.334 14.8124 51.0391 14.2845 50.5444 14.2392L37.613 13.0536C37.0176 12.999 36.7544 12.2761 37.1754 11.8515L37.3189 11.7067C37.4503 11.5743 37.5239 11.3953 37.5239 11.2088V9.3738C37.5239 8.98326 37.2073 8.66666 36.8168 8.66666H30.7948C30.6062 8.66666 30.4254 8.74198 30.2927 8.87589L26.4244 12.777C26.3337 12.8684 26.2199 12.9333 26.0951 12.9647L20.6668 14.3333L15.3035 15.6855C15.1386 15.7271 14.9641 15.7078 14.8123 15.6312L13.7645 15.1029C13.2017 14.8191 12.5769 15.3578 12.7747 15.9562L13.5518 18.3075C13.6102 18.4842 13.5966 18.6768 13.514 18.8436L12.5502 20.7874ZM31.905 38.4167C31.905 39.1991 31.276 39.8333 30.5002 39.8333C29.7244 39.8333 29.0954 39.1991 29.0954 38.4167C29.0954 37.6343 29.7244 37 30.5002 37C31.276 37 31.905 37.6343 31.905 38.4167ZM22.0715 25.6667C22.8473 25.6667 23.4762 25.0324 23.4762 24.25C23.4762 23.4676 22.8473 22.8333 22.0715 22.8333C21.2956 22.8333 20.6667 23.4676 20.6667 24.25C20.6667 25.0324 21.2956 25.6667 22.0715 25.6667ZM48.762 29.9167V31.3333L47.1474 32.9616C46.7048 33.4079 47.021 34.1667 47.6495 34.1667H48.3233C48.592 34.1667 48.8375 34.0144 48.9568 33.7736L50.1667 31.3333L48.762 29.9167ZM48.762 29.9167L49.5449 29.5219C50.0527 29.2658 49.8705 28.5 49.3018 28.5C49.0037 28.5 48.762 28.7417 48.762 29.0398V29.9167Z" fill="white"/>
</g>
</svg>
